remix/Editor/align-justify.svg

<svg viewBox="0 0 24 24" xmlns="http://www.w3.org/2000/svg"><path fill="none" d="M0 0h24v24H0Z"/><path d="M3 4h18v2H3V4Zm0 15h18v2H3v-2Zm0-5h18v2H3v-2Zm0-5h18v2H3V9Z"/></svg>

<svg viewBox="0 0 24 24" fill="currentColor" xmlns="http://www.w3.org/2000/svg"><path d="M3 4H21V6H3V4ZM3 19H21V21H3V19ZM3 14H21V16H3V14ZM3 9H21V11H3V9Z"/></svg>
